icons/scan-crosshatch-24.svg

<?xml version="1.0" encoding="UTF-8"?><svg id="icons" xmlns="http://www.w3.org/2000/svg" viewBox="0 0 24 24"><path d="m21.52319,14h-6.52319v-4h8L14,1v8h-4V3.80389c.52539-.20172.90002-.70746.90002-1.30389,0-.77319-.62683-1.40002-1.40002-1.40002s-1.40002.62683-1.40002,1.40002c0,.59644.37463,1.10217.90002,1.30389v5.19611h-4.5l-2.5-1,.97821,1.5-.97821,1.48627,2.5-.98627h4.5v4H1l9,9v-8h4v8l9-9h-1.47681ZM15,3.47681l5.52319,5.52319h-5.52319V3.47681Zm-6,17.04639l-5.52319-5.52319h5.52319v5.52319Zm1-6.52319v-4h4v4h-4Zm5,1h5.52319l-5.52319,5.52319v-5.52319Z" style="stroke-width:0px;"/><rect y="0" width="24" height="24" style="fill:none; stroke-width:0px;"/></svg>

<svg xmlns="http://www.w3.org/2000/svg" viewBox="0 0 24 24"><path d="M21.523 14H15v-4h8l-9-9v8h-4V3.804A1.397 1.397 0 0 0 9.5 1.1 1.397 1.397 0 0 0 9 3.804V9H4.5L2 8l.978 1.5L2 10.986 4.5 10H9v4H1l9 9v-8h4v8l9-9h-1.477zM15 3.477L20.523 9H15V3.477zM9 20.523L3.477 15H9v5.523zM10 14v-4h4v4h-4zm5 1h5.523L15 20.523V15z" stroke-width="0"/><path fill="none" stroke-width="0" d="M0 0h24v24H0z"/></svg>
